X:1
T:Title
%%score { ( 1 3 ) | ( 2 4 ) }
L:1/8
M:4/2
K:G
V:1 bass nm="Grand Piano"
V:3 bass 
V:2 bass 
V:4 bass 
V:1
 z8 z4[Q:1/4=192] [G,B,D]4 | [F,A,D]4 [G,D]4 [G,CE]4 [G,CE]4 | D12 z4 | D4 D4 G4 G4 |[M:6/4] A12 | %5
[M:2/4] A4 |[M:8/4] [DB]4 [DB]4 [G,DG]4 [G,DG]4 | [CEA]4 [CEA]4 [B,EG]4 [CEG]4 | %8
 [B,DG]4 G2- [DG]2 G4 E2 F2 |[M:6/4] [B,G]12 |] %10
V:2
 z8 z4 G,,4 | A,,4 B,,4 C,2 D,2 E,2 F,2 | C8 z8 | [G,B,]4 [F,A,]4 [E,G,D]4 [E,G,^C]4 | %4
[M:6/4] [D,F,D]12 |[M:2/4] [D,F,D]4 |[M:8/4] z4 G,4 z8 | C,4 C,2 D,2 E,4 C,4 | %8
 D,4 z2 B,2 [D,A,C]4 [D,A,C]4 |[M:6/4] [G,,G,]12 |] %10
V:3
 x16 | x16 | z8 B,4 D4 | x16 |[M:6/4] x12 |[M:2/4] x4 |[M:8/4] x16 | x16 | z4 .[CE]4 z8 | %9
[M:6/4] x12 |] %10
V:4
 x16 | x16 | G,12 [F,A,]4 | x16 |[M:6/4] x12 |[M:2/4] x4 |[M:8/4] [G,,G,]4 G,,2 A,,2 B,,4 B,,4 | %7
 x16 | z4 D,4 z8 |[M:6/4] x12 |] %10

